images/site-logo-white.svg

<svg xmlns="http://www.w3.org/2000/svg" width="107" height="24" viewBox="0 0 107 24" fill="none">
<path d="M1.66733 4.07833V8.97774C1.66733 9.78146 1.66733 10.6842 0 10.6842V12.0079V12.0258V13.3163C1.66733 13.3163 1.66733 14.2185 1.66733 15.0228V19.9217C1.66733 23.7239 3.75058 24 7.29294 24V21.0428C5.62561 21.0428 5.00095 20.7973 5.00095 19.8487V14.9978C5.00095 13.8777 5.07785 12.7075 4.10006 11.9997C5.07785 11.293 5.00095 10.1229 5.00095 9.00172V4.15182C5.00095 3.20419 5.62613 2.95771 7.29294 2.95771V7.01673e-07C3.75058 -0.000508897 1.66733 0.275564 1.66733 4.07833ZM11.0414 3.91963C10.1306 4.68916 9.67544 5.79448 9.67544 7.23455V8.52816H7.77268V11.2312H9.67544V21.027H13.81V11.2312H16.3714V8.52816H13.81V7.60554C13.81 7.13606 13.9481 6.77426 14.2244 6.52012C14.5006 6.266 14.8956 6.13944 15.4078 6.13944C15.6594 6.13944 16.9448 6.14352 16.9448 6.14352V3.0067C16.9448 3.0067 14.6497 2.98169 14.3217 2.98169C13.3235 2.98169 11.9523 3.14907 11.0414 3.91963ZM18.7634 6.1323H22.8985V3.0067H18.7634V6.1323ZM18.7634 21.0275H22.8985V8.52816H18.7634V21.0275ZM33.095 8.297C32.3144 8.297 31.6066 8.47254 30.9725 8.82261C30.3384 9.17267 29.8058 9.66052 29.3748 10.2836L29.2162 8.52816H25.3495V21.027H29.46V12.0406C29.6714 11.8094 29.9256 11.6272 30.2223 11.4976C30.5189 11.368 30.8585 11.3011 31.2409 11.3011C31.8509 11.3011 32.3123 11.4496 32.6252 11.7456C32.938 12.0426 33.095 12.5478 33.095 13.2648V21.028H37.2175V13.2765C37.2175 11.5435 36.8534 10.2805 36.1262 9.48702C35.3985 8.6935 34.3877 8.297 33.095 8.297ZM49.6856 14.8646C48.9093 14.268 47.7154 13.8185 46.1056 13.5184C45.0813 13.3347 44.3996 13.1255 44.0627 12.8943C43.7252 12.6642 43.5562 12.382 43.5562 12.0513C43.5562 11.7043 43.7027 11.4211 43.9952 11.197C44.2876 10.9735 44.6496 10.8613 45.0807 10.8613C45.6662 10.8613 46.091 10.9888 46.3552 11.243C46.6194 11.4971 46.7517 11.8706 46.7517 12.3631H50.7524L50.777 12.2942C50.8261 11.1144 50.3302 10.1555 49.2891 9.412C48.248 8.66849 46.849 8.29648 45.0928 8.29648C43.4254 8.29648 42.1044 8.68023 41.1282 9.4467C40.1525 10.2132 39.6649 11.146 39.6649 12.2467C39.6649 13.2862 40.0552 14.1073 40.8358 14.7074C41.6163 15.3085 42.7751 15.751 44.3122 16.0362C45.2879 16.2286 45.9607 16.446 46.3306 16.6884C46.701 16.9313 46.8857 17.2074 46.8857 17.5136C46.8857 17.8912 46.7434 18.1831 46.4588 18.3857C46.1742 18.5898 45.7556 18.6934 45.2026 18.6934C44.5361 18.6934 44.0213 18.5612 43.6598 18.2999C43.2978 18.0387 43.1089 17.611 43.0927 17.0181H39.3604L39.3364 17.0869C39.2877 18.1504 39.7852 19.1133 40.8305 19.9752C41.8753 20.8382 43.2962 21.2689 45.0933 21.2689C46.8255 21.2689 48.2176 20.905 49.2708 20.1768C50.3244 19.4491 50.8507 18.524 50.8507 17.3987C50.8507 16.3062 50.462 15.4611 49.6856 14.8646ZM64.4028 15.7714H64.3296L62.159 8.52918H59.5604L57.4139 15.8301H57.3406L55.8894 8.52918H52.0838L55.1941 21.028H58.671L60.8291 14.3977H60.9023L63.0494 21.028H66.5379L69.6361 8.52918H65.8306L64.4028 15.7714ZM76.6355 8.29692C74.6757 8.28934 73.1685 8.88844 72.1159 10.0938C71.0617 11.2986 70.5354 12.8525 70.5354 14.7544V15.1937C70.5354 16.9339 71.1151 18.3821 72.2728 19.5374C73.4317 20.6932 74.9834 21.2704 76.9269 21.2704C77.9759 21.2704 78.9579 21.1377 79.8729 20.8718C80.7874 20.6065 81.5339 20.2738 82.1105 19.8732L81.1353 17.4931C80.4196 17.7789 79.8279 17.9784 79.3602 18.0943C78.8919 18.2106 78.2678 18.2683 77.4872 18.2683C76.7145 18.2683 76.0972 18.0621 75.6337 17.6503C75.1696 17.237 74.8939 16.7119 74.8039 16.073L74.829 16.0031H82.3663V13.9573C82.3663 12.2171 81.8578 10.8388 80.8418 9.82178C79.8268 8.80526 78.4237 8.29692 76.6355 8.29692ZM78.3431 13.5653H74.7935L74.7568 13.5082C74.8222 12.8377 75.0032 12.3024 75.3004 11.9018C75.5965 11.5022 76.0423 11.3017 76.636 11.3017C77.2215 11.3017 77.6515 11.4711 77.9293 11.8099C78.2055 12.1488 78.3442 12.634 78.3442 13.2653L78.3431 13.5653ZM90.4701 8.29692C88.5104 8.28934 87.0042 8.88844 85.9505 10.0938C84.8979 11.2986 84.3705 12.8525 84.3705 14.7544V15.1937C84.3705 16.9339 84.9502 18.3821 86.109 19.5374C87.2684 20.6932 88.8185 21.2704 90.7621 21.2704C91.8115 21.2704 92.7935 21.1377 93.7091 20.8718C94.6236 20.6065 95.3696 20.2738 95.9466 19.8732L94.9709 17.4931C94.2552 17.7789 93.6641 17.9784 93.1958 18.0943C92.7271 18.2106 92.104 18.2683 91.3229 18.2683C90.5507 18.2683 89.9334 18.0621 89.4693 17.6503C89.0053 17.237 88.7296 16.7119 88.6396 16.073L88.6642 16.0031H96.202V13.9573C96.202 12.2171 95.6934 10.8388 94.6774 9.82178C93.6609 8.80526 92.2594 8.29692 90.4701 8.29692ZM92.1772 13.5653H88.6286L88.592 13.5082C88.6574 12.8377 88.8384 12.3024 89.1345 11.9018C89.4306 11.5022 89.8764 11.3017 90.4701 11.3017C91.0556 11.3017 91.4866 11.4711 91.7639 11.8099C92.0412 12.1488 92.1788 12.634 92.1788 13.2653V13.5659H92.1772V13.5653ZM104.672 17.7855C104.16 17.7855 103.765 17.659 103.489 17.4049C103.212 17.1507 103.074 16.7879 103.074 16.3184V11.2532H105.219V8.54908H103.074V2.9868H98.9392V8.54908H97.0359V11.2532H98.9392V16.6894C98.9392 18.1295 99.3943 19.2348 100.305 20.0054C101.215 20.7764 102.586 20.9433 103.585 20.9433C103.914 20.9433 106.209 20.9183 106.209 20.9183V17.7815C106.209 17.7815 104.925 17.7855 104.672 17.7855Z" fill="white"/>
</svg>

<svg xmlns="http://www.w3.org/2000/svg" width="107" height="24" fill="none"><path d="M1.667 4.078v4.9c0 .803 0 1.706-1.667 1.706v2.632c1.667 0 1.667.902 1.667 1.707v4.899C1.667 23.724 3.751 24 7.293 24v-2.957C5.626 21.043 5 20.797 5 19.849v-4.851c0-1.12.077-2.29-.9-2.998.977-.707.9-1.877.9-2.998v-4.85c0-.948.625-1.194 2.292-1.194V0C3.75 0 1.667.276 1.667 4.078Zm9.374-.158c-.91.77-1.366 1.874-1.366 3.315v1.293H7.773v2.703h1.902v9.796h4.135v-9.796h2.561V8.528H13.81v-.922c0-.47.138-.832.414-1.086.277-.254.672-.38 1.184-.38l1.537.004V3.007s-2.295-.025-2.623-.025c-.998 0-2.37.167-3.28.938Zm7.722 2.212h4.135V3.007h-4.135v3.125Zm0 14.895h4.135V8.528h-4.135v12.5Zm14.332-12.73c-.78 0-1.488.176-2.122.526a4.678 4.678 0 0 0-1.598 1.46l-.159-1.755H25.35v12.499h4.111v-8.986c.211-.232.466-.414.762-.543.297-.13.636-.197 1.019-.197.61 0 1.071.149 1.384.445.313.297.47.802.47 1.519v7.763h4.123v-7.751c0-1.733-.365-2.996-1.092-3.79-.727-.793-1.738-1.19-3.031-1.19Zm16.59 6.568c-.776-.597-1.97-1.046-3.58-1.347-1.024-.183-1.705-.393-2.042-.624-.338-.23-.507-.512-.507-.843 0-.347.147-.63.44-.854.292-.223.654-.336 1.085-.336.585 0 1.01.128 1.274.382s.397.628.397 1.12h4l.025-.069c.05-1.18-.447-2.139-1.488-2.882-1.041-.744-2.44-1.116-4.196-1.116-1.668 0-2.989.384-3.965 1.15-.975.767-1.463 1.7-1.463 2.8 0 1.04.39 1.861 1.17 2.461.781.601 1.94 1.044 3.477 1.33.976.192 1.649.409 2.019.651.37.243.555.52.555.826 0 .377-.143.67-.427.872-.285.204-.703.307-1.256.307-.667 0-1.182-.132-1.543-.393-.362-.261-.551-.689-.567-1.282H39.36l-.024.069c-.048 1.063.45 2.026 1.495 2.888 1.044.863 2.465 1.294 4.262 1.294 1.732 0 3.125-.364 4.178-1.092 1.053-.728 1.58-1.653 1.58-2.778 0-1.093-.389-1.938-1.165-2.534Zm14.718.906h-.073L62.159 8.53H59.56l-2.146 7.301h-.073l-1.452-7.3h-3.805l3.11 12.498h3.477l2.158-6.63h.073l2.147 6.63h3.489l3.098-12.499h-3.805l-1.428 7.242Zm12.232-7.474c-1.96-.008-3.467.591-4.52 1.797-1.053 1.205-1.58 2.758-1.58 4.66v.44c0 1.74.58 3.188 1.738 4.343 1.159 1.156 2.71 1.733 4.654 1.733 1.049 0 2.03-.132 2.946-.398.914-.265 1.66-.598 2.237-.999l-.975-2.38c-.715.286-1.307.485-1.775.601-.468.117-1.092.174-1.873.174-.772 0-1.39-.206-1.853-.618a2.51 2.51 0 0 1-.83-1.577l.025-.07h7.537v-2.046c0-1.74-.508-3.118-1.524-4.135-1.015-1.017-2.418-1.525-4.207-1.525Zm1.708 5.268h-3.55l-.036-.057c.065-.67.246-1.206.543-1.606.297-.4.742-.6 1.336-.6.586 0 1.016.17 1.293.508.276.339.415.824.415 1.455v.3ZM90.47 8.297c-1.96-.008-3.466.591-4.52 1.797-1.052 1.205-1.58 2.758-1.58 4.66v.44c0 1.74.58 3.188 1.739 4.343 1.16 1.156 2.71 1.733 4.653 1.733 1.05 0 2.031-.132 2.947-.398.915-.265 1.66-.598 2.238-.999l-.976-2.38c-.716.286-1.307.485-1.775.601-.469.117-1.092.174-1.873.174-.772 0-1.39-.206-1.854-.618a2.51 2.51 0 0 1-.83-1.577l.025-.07h7.538v-2.046c0-1.74-.509-3.118-1.525-4.135S92.26 8.297 90.47 8.297Zm1.707 5.268H88.63l-.037-.057c.065-.67.246-1.206.543-1.606.296-.4.741-.6 1.335-.6.586 0 1.017.17 1.294.508.277.339.415.824.415 1.455v.3h-.002Zm12.495 4.22c-.512 0-.907-.126-1.183-.38-.277-.254-.415-.617-.415-1.087v-5.065h2.145V8.55h-2.145V2.987h-4.135v5.562h-1.903v2.704h1.903v5.436c0 1.44.455 2.546 1.366 3.316.91.771 2.281.938 3.28.938.329 0 2.624-.025 2.624-.025v-3.136l-1.537.003Z" fill="#fff"/></svg>
